X: 1238
T:Berehaven
M:4/4
L:1/8
C:Finbar Dwyer
S:James McIlheron, Cushendall, Antrim (Accordian)
R:Reel
D:Session tape - Cushendall, 1993
Z:Bernie Stocks
K:A
Accc BAFA | EAcf ecBc | AE~E2 CE~E2 | ecBe cAA2 | (3cBA eA aAeA | dBcA BAFA |\
E2CE A,EAf | ecBc A3f :: ec~c2 Ac~c2 | ecdc BAFA | EFGA Bcdf |\
efec BAFA | A2FA EACE | c2ec dcBf | ecac AcEc | dcBe cAA2 :|
